src/lib/assets/solflare.svg

<svg width="248" height="248" viewBox="0 0 248 248" fill="none" xmlns="http://www.w3.org/2000/svg">
  <g clip-path="url(#clip0_3159_613)">
    <path d="M125.43 210.536C127.404 210.536 129.004 212.119 129.004 214.072C129.004 216.024 127.404 217.607 125.43 217.607C123.456 217.607 121.855 216.024 121.855 214.072C121.855 212.119 123.456 210.536 125.43 210.536ZM121.547 41.6533C123.293 41.7976 124.704 43.1212 124.94 44.8373L129.192 75.7285C130.62 85.9345 142.929 90.3565 150.527 83.4211L193.125 44.6496C194.152 43.7143 195.753 43.7791 196.699 44.7943C197.568 45.7258 197.594 47.1518 196.76 48.1136L159.614 90.9618C152.776 98.836 157.822 111.132 168.246 112.01L201.021 115.169C202.653 115.326 203.848 116.761 203.688 118.374C203.557 119.704 202.532 120.778 201.196 120.987L166.757 126.364C156.758 127.727 152.229 139.568 158.733 147.261L170.841 161.534C171.816 162.684 171.663 164.398 170.499 165.361C169.513 166.178 168.086 166.21 167.063 165.437L152.138 154.166C144.084 148.109 132.474 153.257 131.623 163.281L128.334 202.376C128.198 203.991 126.763 205.191 125.129 205.057C123.742 204.943 122.621 203.892 122.433 202.53L117.217 164.766C115.819 154.56 103.51 150.138 95.8819 157.073L50.5665 198.335C49.6285 199.189 48.1673 199.13 47.3028 198.204C46.5097 197.353 46.4856 196.051 47.2467 195.173L86.7949 149.532C93.6332 141.658 88.6185 129.362 78.1935 128.485L45.4113 125.324C43.779 125.167 42.5848 123.732 42.7441 122.119C42.8754 120.789 43.8999 119.715 45.2359 119.506L79.6525 114.13C89.6518 112.767 94.2106 100.926 87.7067 93.2332L79.465 83.5171C78.2555 82.0912 78.4449 79.9666 79.8881 78.7715C81.1114 77.7586 82.8822 77.7197 84.1499 78.6779L94.2711 86.3283C102.325 92.3852 113.935 87.2371 114.786 77.2129L117.509 45.0274C117.681 42.994 119.488 41.4834 121.547 41.6533ZM34.3621 118.507C36.3363 118.507 37.9366 120.089 37.9366 122.042C37.9366 123.994 36.3363 125.577 34.3621 125.577C32.388 125.577 30.7876 123.994 30.7876 122.042C30.7876 120.089 32.388 118.507 34.3621 118.507ZM213.638 114.917C215.612 114.917 217.212 116.5 217.212 118.452C217.212 120.405 215.612 121.988 213.638 121.988C211.664 121.988 210.063 120.405 210.063 118.452C210.063 116.5 211.664 114.917 213.638 114.917ZM121.03 30.3931C123.005 30.3931 124.605 31.9759 124.605 33.9285C124.605 35.881 123.005 37.4639 121.03 37.4639C119.056 37.4639 117.456 35.881 117.456 33.9285C117.456 31.9759 119.056 30.3931 121.03 30.3931Z" fill="url(#paint0_linear_3159_613)"/>
    <path d="M123.175 153.643C141.824 153.643 156.941 138.691 156.941 120.247C156.941 101.803 141.824 86.8508 123.175 86.8508C104.527 86.8508 89.41 101.803 89.41 120.247C89.41 138.691 104.527 153.643 123.175 153.643Z" fill="url(#paint1_radial_3159_613)"/>
  </g>
  <defs>
    <linearGradient id="paint0_linear_3159_613" x1="55.1462" y1="60.1723" x2="162.052" y2="156.952" gradientUnits="userSpaceOnUse">
      <stop stop-color="#FFC10B"/>
      <stop offset="1" stop-color="#FB3F2E"/>
    </linearGradient>
    <radialGradient id="paint1_radial_3159_613" cx="0" cy="0" r="1" gradientUnits="userSpaceOnUse" gradientTransform="translate(115.464 107.918) rotate(67.5196) scale(49.0906 49.5676)">
      <stop stop-color="#FFC10B"/>
      <stop offset="1" stop-color="#FB3F2E"/>
    </radialGradient>
    <clipPath id="clip0_3159_613">
      <rect width="188" height="188" fill="white" transform="translate(30 30)"/>
    </clipPath>
  </defs>
</svg>

<svg xmlns="http://www.w3.org/2000/svg" width="248" height="248" fill="none"><g clip-path="url(#a)"><path fill="url(#b)" d="M125.43 210.536c1.974 0 3.574 1.583 3.574 3.536 0 1.952-1.6 3.535-3.574 3.535s-3.575-1.583-3.575-3.535 1.601-3.536 3.575-3.536m-3.883-168.883c1.746.145 3.157 1.468 3.393 3.184l4.252 30.891c1.428 10.207 13.737 14.629 21.335 7.693l42.598-38.771a2.55 2.55 0 0 1 3.574.144c.869.932.895 2.358.061 3.32l-37.146 42.848c-6.838 7.874-1.792 20.17 8.632 21.048l32.775 3.159c1.632.157 2.827 1.592 2.667 3.205a2.95 2.95 0 0 1-2.492 2.613l-34.439 5.377c-9.999 1.363-14.528 13.204-8.024 20.897l12.108 14.273a2.694 2.694 0 0 1-.342 3.827 2.774 2.774 0 0 1-3.436.076l-14.925-11.271c-8.054-6.057-19.664-.909-20.515 9.115l-3.289 39.095c-.136 1.615-1.571 2.815-3.205 2.681a2.955 2.955 0 0 1-2.696-2.527l-5.216-37.764c-1.398-10.206-13.707-14.628-21.335-7.693l-45.316 41.262a2.33 2.33 0 0 1-3.263-.131 2.26 2.26 0 0 1-.056-3.031l39.548-45.641c6.838-7.874 1.823-20.17-8.602-21.047l-32.782-3.161c-1.632-.157-2.826-1.592-2.667-3.205a2.95 2.95 0 0 1 2.492-2.613l34.417-5.376c9.999-1.363 14.558-13.204 8.054-20.897l-8.242-9.716a3.34 3.34 0 0 1 .423-4.745 3.44 3.44 0 0 1 4.262-.094l10.121 7.65c8.054 6.057 19.664.91 20.515-9.115l2.723-32.186c.172-2.033 1.979-3.544 4.038-3.374m-87.185 76.854c1.974 0 3.575 1.582 3.575 3.535 0 1.952-1.6 3.535-3.575 3.535-1.974 0-3.574-1.583-3.574-3.535s1.6-3.535 3.574-3.535m179.276-3.59c1.974 0 3.574 1.583 3.574 3.535s-1.6 3.536-3.574 3.536-3.575-1.583-3.575-3.536c0-1.952 1.601-3.535 3.575-3.535M121.03 30.393c1.975 0 3.575 1.583 3.575 3.535s-1.6 3.536-3.575 3.536c-1.974 0-3.574-1.583-3.574-3.535s1.6-3.536 3.574-3.536"/><path fill="url(#c)" d="M123.175 153.643c18.649 0 33.766-14.952 33.766-33.396s-15.117-33.396-33.766-33.396-33.765 14.952-33.765 33.396 15.117 33.396 33.765 33.396"/></g><defs><radialGradient id="c" cx="0" cy="0" r="1" gradientTransform="matrix(18.77064 45.36022 -45.80098 18.95303 115.464 107.918)" gradientUnits="userSpaceOnUse"><stop stop-color="#FFC10B"/><stop offset="1" stop-color="#FB3F2E"/></radialGradient><linearGradient id="b" x1="55.146" x2="162.052" y1="60.172" y2="156.952" gradientUnits="userSpaceOnUse"><stop stop-color="#FFC10B"/><stop offset="1" stop-color="#FB3F2E"/></linearGradient><clipPath id="a"><path fill="#fff" d="M30 30h188v188H30z"/></clipPath></defs></svg>
